img/ntek-grey.svg

<svg width="203" height="66" viewBox="0 0 203 66" fill="none" xmlns="http://www.w3.org/2000/svg">
<path d="M203 0C200.002 16.8422 197.216 33.4193 194.036 49.9133C192.498 57.9005 187.259 62.7905 179.231 64.3755C176.222 64.9679 173.125 65.3888 170.064 65.394C131.38 65.4616 92.6969 65.4512 54.0186 65.42C51.9296 65.42 49.8458 65.1134 46.6343 64.864C47.393 60.7327 48.0166 57.121 48.7233 53.525C51.3216 40.2685 53.9095 27.0119 56.5754 13.771C58.7579 2.93608 60.2442 1.69409 71.2194 1.68889C106.577 1.65772 141.94 1.77204 177.298 1.60055C185.498 1.55898 193.693 0.608002 203 0ZM183.107 55.9778C178.264 48.3544 173.525 40.8868 168.749 33.3726C177.09 25.5621 184.874 18.2712 192.95 10.705C176.102 4.80166 170.282 19.825 159.717 26.2792C160.72 20.4642 161.588 15.4391 162.861 8.07552C157.223 9.83197 150.213 10.2529 149.569 12.4978C145.437 26.934 142.699 41.7703 139.498 56.5182C148.016 57.7931 153.111 54.8969 154.781 47.8295C155.29 45.6781 155.919 43.5579 156.859 40.0502C162.809 50.9579 167.372 62.3748 183.107 55.9778ZM143.681 9.53056C133.163 9.53056 123.232 9.42663 113.312 9.64489C111.826 9.67607 109.342 10.9908 109.066 12.1341C105.522 26.9132 102.29 41.7703 98.8289 57.2873C108.64 57.2873 117.147 57.2873 125.649 57.2873C136.011 57.2873 136.946 56.2324 136.078 44.6804H115.437C115.099 37.9664 119.226 38.6159 123.05 38.6107C133.163 38.5951 133.163 38.5588 134.524 27.7395C129.499 27.4225 124.511 27.1003 119.522 26.7833C119.22 26.1181 118.914 25.4478 118.612 24.7826C120.327 23.6445 121.917 21.8673 123.778 21.5191C126.761 20.9631 129.915 21.358 133.002 21.3528C139.768 21.3424 143.326 17.4017 143.676 9.53056H143.681ZM67.8416 56.4818C80.3966 58.6384 80.6252 58.5137 83.156 47.3514C84.7202 40.4451 86.5598 33.57 87.5887 26.5806C88.2175 22.3038 90.0051 21.2801 94.0325 21.2593C104.649 21.2021 104.649 21.0202 105.517 9.50978C94.178 9.50978 82.8858 9.49938 71.5935 9.50978C62.1461 9.52017 61.1328 10.6738 61.7668 21.0306C65.9968 21.3009 70.2892 21.5763 75.1428 21.8881C72.5809 34.0481 70.2164 45.2572 67.8468 56.4818H67.8416Z" fill="#707070"/>
<path d="M50.1784 11.2713C46.9461 25.7698 43.9477 39.8318 40.4815 53.7743C40.1385 55.1566 36.74 56.8455 35.0407 56.5805C32.1877 56.1336 28.2227 54.9384 27.0847 52.8026C23.6913 46.4471 21.4464 39.4733 17.0448 32.7073C15.8133 38.0598 14.6024 43.4227 13.3501 48.77C11.3234 57.4171 10.4763 57.8952 0 55.6347C3.17512 41.4428 6.22553 27.2041 9.74882 13.0849C10.0814 11.7494 13.6567 10.0865 15.278 10.4711C17.6061 11.0167 20.459 12.8563 21.4516 14.9297C24.8813 22.0855 27.5991 29.579 32.3281 36.7711C33.7571 30.6443 35.2433 24.5331 36.5945 18.3907C38.5068 9.71235 39.2551 9.22387 50.1732 11.2661L50.1784 11.2713Z" fill="#707070"/>
</svg>

<svg width="203" height="66" fill="none" xmlns="http://www.w3.org/2000/svg"><path d="M203 0c-2.998 16.842-5.784 33.42-8.964 49.913-1.538 7.988-6.777 12.878-14.805 14.463-3.009.592-6.106 1.013-9.167 1.018-38.684.068-77.367.057-116.045.026-2.09 0-4.173-.307-7.385-.556.759-4.131 1.383-7.743 2.09-11.339 2.598-13.256 5.186-26.513 7.851-39.754C58.758 2.936 60.245 1.694 71.22 1.689c35.358-.031 70.721.083 106.079-.088C185.498 1.559 193.693.608 203 0zm-19.893 55.978c-4.843-7.624-9.582-15.091-14.358-22.605 8.341-7.81 16.125-15.102 24.201-22.668-16.848-5.903-22.668 9.12-33.233 15.574 1.003-5.815 1.871-10.84 3.144-18.203-5.638 1.756-12.648 2.177-13.292 4.422-4.132 14.436-6.87 29.272-10.071 44.02 8.518 1.275 13.613-1.621 15.283-8.688.509-2.152 1.138-4.272 2.078-7.78 5.95 10.908 10.513 22.325 26.248 15.928zM143.681 9.53c-10.518 0-20.449-.104-30.369.114-1.486.031-3.97 1.346-4.246 2.49-3.544 14.778-6.776 29.635-10.237 45.152h26.82c10.362 0 11.297-1.055 10.429-12.607h-20.641c-.338-6.714 3.789-6.064 7.613-6.07 10.113-.015 10.113-.051 11.474-10.87-5.025-.317-10.013-.64-15.002-.957l-.91-2c1.715-1.139 3.305-2.916 5.166-3.264 2.983-.556 6.137-.161 9.224-.166 6.766-.01 10.324-3.951 10.674-11.822h.005zm-75.84 46.95c12.556 2.157 12.784 2.033 15.315-9.13 1.564-6.906 3.404-13.781 4.433-20.77.629-4.277 2.416-5.3 6.444-5.322 10.616-.057 10.616-.239 11.484-11.75-11.339 0-22.631-.01-33.923 0-9.448.011-10.461 1.165-9.827 11.522 4.23.27 8.522.545 13.376.857-2.562 12.16-4.927 23.37-7.296 34.594h-.005zM50.178 11.271c-3.232 14.499-6.23 28.56-9.697 42.503-.343 1.383-3.741 3.072-5.44 2.806-2.853-.446-6.818-1.642-7.956-3.777-3.394-6.356-5.639-13.33-10.04-20.096-1.232 5.353-2.443 10.716-3.695 16.063-2.027 8.647-2.874 9.125-13.35 6.865 3.175-14.192 6.226-28.43 9.749-42.55.332-1.336 3.908-2.999 5.529-2.614 2.328.546 5.181 2.385 6.174 4.459 3.43 7.155 6.147 14.649 10.876 21.841 1.43-6.127 2.915-12.238 4.266-18.38 1.913-8.679 2.661-9.167 13.58-7.125l.004.005z" fill="#707070"/></svg>
